packages/foundations/assets/icons/functional/images/date & time/alarm_clock_28.svg

<svg width="28" height="28" viewBox="0 0 28 28" fill="none" xmlns="http://www.w3.org/2000/svg">
<g clip-path="url(#clip0_185_631)">
<path fill-rule="evenodd" clip-rule="evenodd" d="M20.4258 3.51367C22.6679 3.51367 24.5 5.34575 24.5 7.58793C24.5 8.81836 23.9531 9.9395 23.0508 10.7324C23.4062 11.7442 23.625 12.8379 23.625 13.9864C23.625 16.3652 22.75 18.5254 21.3281 20.2207L23.4609 23.0918C23.5703 23.2559 23.625 23.4199 23.625 23.6114C23.625 24.1036 23.2422 24.4864 22.75 24.4864C22.4766 24.4864 22.2031 24.377 22.0391 24.1309L20.0703 21.4512C18.4023 22.7911 16.2969 23.6114 14 23.6114C11.7031 23.6114 9.5977 22.7911 7.92969 21.4512L5.96094 24.1309C5.79688 24.377 5.52344 24.4864 5.25 24.4864C4.75781 24.4864 4.375 24.0762 4.375 23.6114C4.375 23.4199 4.42969 23.2559 4.53906 23.0918L6.67188 20.2207C5.25 18.5254 4.375 16.3652 4.375 13.9864C4.375 12.8379 4.59375 11.7442 4.94917 10.7051C4.04687 9.9395 3.5 8.81836 3.5 7.58793C3.5 5.34575 5.33207 3.51367 7.57417 3.51367C8.80469 3.51367 9.95312 4.03325 10.7188 4.96293C11.7304 4.58012 12.8516 4.38867 14 4.38867C15.1484 4.38867 16.2696 4.58012 17.2812 4.96293C18.0469 4.03325 19.1953 3.51367 20.4258 3.51367ZM14 6.13867C9.6523 6.13867 6.125 9.66606 6.125 13.9864C6.125 18.334 9.6523 21.8614 14 21.8614C18.3477 21.8614 21.875 18.334 21.875 13.9864C21.875 9.66606 18.3477 6.13867 14 6.13867ZM20.4258 5.26367C19.879 5.26367 19.3594 5.42773 18.9492 5.75586C20.2891 6.57617 21.4375 7.69731 22.2304 9.03711C22.5585 8.627 22.75 8.13481 22.75 7.58793C22.75 6.30273 21.7109 5.26367 20.4258 5.26367ZM7.57417 5.26367C6.28906 5.26367 5.25 6.30273 5.25 7.58793C5.25 8.13481 5.44145 8.627 5.76958 9.03711C6.5625 7.69731 7.68355 6.57617 9.05083 5.75586C8.64062 5.42773 8.12105 5.26367 7.57417 5.26367ZM14 7.86137C14.4922 7.86137 14.875 8.27148 14.875 8.73637V13.6309L17.1992 15.9551C17.3633 16.1192 17.4453 16.3379 17.4453 16.5567C17.4453 17.1036 17.0352 17.4317 16.5703 17.4317C16.3516 17.4317 16.1328 17.3496 15.9415 17.1855L13.371 14.6152C13.2071 14.4512 13.125 14.2324 13.125 13.9864V8.73637C13.125 8.27148 13.5078 7.86137 14 7.86137Z" fill="#1A1C1F"/>
</g>
<defs>
<clipPath id="clip0_185_631">
<rect width="28" height="28" fill="white"/>
</clipPath>
</defs>
</svg>

<svg xmlns="http://www.w3.org/2000/svg" width="28" height="28" fill="none"><g clip-path="url(#a)"><path fill="#1A1C1F" fill-rule="evenodd" d="M20.426 3.514A4.085 4.085 0 0 1 24.5 7.588c0 1.23-.547 2.352-1.45 3.144a9.8 9.8 0 0 1 .575 3.254c0 2.38-.875 4.54-2.297 6.235l2.133 2.87a.9.9 0 0 1 .164.52.864.864 0 0 1-.875.875c-.273 0-.547-.109-.71-.355l-1.97-2.68c-1.668 1.34-3.773 2.16-6.07 2.16s-4.402-.82-6.07-2.16l-1.97 2.68c-.163.246-.437.355-.71.355a.881.881 0 0 1-.71-1.394l2.132-2.871c-1.422-1.696-2.297-3.856-2.297-6.235 0-1.148.219-2.242.574-3.28A4.07 4.07 0 0 1 3.5 7.587a4.084 4.084 0 0 1 4.074-4.074c1.23 0 2.38.52 3.145 1.449 1.011-.383 2.133-.574 3.281-.574s2.27.191 3.281.574c.766-.93 1.914-1.45 3.145-1.45M14 6.139c-4.348 0-7.875 3.527-7.875 7.847A7.877 7.877 0 0 0 14 21.861a7.877 7.877 0 0 0 7.875-7.875c0-4.32-3.527-7.847-7.875-7.847m6.426-.875c-.547 0-1.067.164-1.477.492 1.34.82 2.488 1.941 3.281 3.281.328-.41.52-.902.52-1.45a2.32 2.32 0 0 0-2.324-2.323m-12.852 0A2.32 2.32 0 0 0 5.25 7.588c0 .547.191 1.039.52 1.45a9.4 9.4 0 0 1 3.28-3.282c-.41-.328-.929-.492-1.476-.492M14 7.86c.492 0 .875.41.875.875v4.895l2.324 2.324a.85.85 0 0 1 .246.602c0 .547-.41.875-.875.875a.96.96 0 0 1-.629-.246l-2.57-2.57a.87.87 0 0 1-.246-.63v-5.25c0-.465.383-.875.875-.875" clip-rule="evenodd"/></g><defs><clipPath id="a"><path fill="#fff" d="M0 0h28v28H0z"/></clipPath></defs></svg>
